!!!COM: Bach, Johann Sebastian
!!!OPR: Joh. Seb. Bachs vierstimmige Choralgesänge
!!!XEN: Four-part Chorales
!!!OTL: 99. Jesu, der du meine Seele
!!!SCT: BWV 352
!!!SCA: Thematisch-systematisches Verzeichnis der musikalischen Werke Johann Sebastian Bach: Bach-Werke-Verzeichnis (Schmieder)
!!!YOR: Bach Gesellschaft Edition xxxix
!!!ENC: Steven Rasmussen
!!!CDT: 1685/3//-1750/7/28/
!!!OCY: Deutschland
!!!YEC: Copyright (c) 1994, 2000 Center for Computer Assisted Research in the Humanities
!!!YEM: Rights to all derivative editions reserved
!!!YEN: United States of America
**kern	**kern	**kern	**kern	**silbe
*I:[BASSO]	*I:[TENORE]	*I:[ALTO]	*I:[SOPRANO]	*I:[SOPRANO]
*>[A,A,B]	*>[A,A,B]	*>[A,A,B]	*>[A,A,B]	*
*>A	*>A	*>A	*>A	*
*clefF4	*clefGv2	*clefG2	*clefG2	*
*k[]	*k[]	*k[]	*k[]	*
*a:	*a:	*a:	*a:	*
*M4/4	*M4/4	*M4/4	*M4/4	*
=1-	=1-	=1-	=1-	=1-
4AA	8cL	8aL	4ee	Je-aus
.	8BJ	8bJ	.	.
4A	4A	4cc	4ee	-su,des
4G#	4e	4b	4b	derTeu-
8F#L	4e	8aL	4cc	du-fels
8EJ	.	8g#J	.	.
=2	=2	=2	=2	=2
8F#L	8dL	8aL	4dd	mei-fin-
8G#J	8BJ	8bJ	.	.
4A	8cL	4a	8ccL	-ne-strer
.	8dJ	.	8bJ	.
4E	4e	8aL	4b	See-HÃ¶h-
.	.	8g#J	.	.
4AA;	4c;	4e;	4a;	-le-le
=3	=3	=3	=3	=3
8AL	8cL	4e	4cc	hastund
8GJ	8BJ	.	.	.
8FL	4A	8aL	4cc	durchder
8EJ	.	8gJ	.	.
8DL	8AL	(8f	4b	dei-schwe-
8EJ	8G#J	4e)	.	.
4F	4A	.	4a	-nen-ren
.	.	8d	.	.
=4	=4	=4	=4	=4
4BB	8BL	8dL	4g#	bit-SÃ¼n-
.	16cL	16eL	.	.
.	16dJJ	16fJJ	.	.
8CL	8cL	8eL	4a	-tern-den-
8AAJ	16eL	8f#J	.	.
.	16d#JJ	.	.	.
2E;	2e;	2g#;	2b;	Tod-not
=5:|!	=5:|!	=5:|!	=5:|!	=5:|!
*>B	*>B	*>B	*>B	*
4E	4e	4g#	4b	krÃ¤f-
8AL	4e	4a	4cc	-tig-
8GJ	.	.	.	.
8F#L	4d	4a	8ddL	-lich
8DJ	.	.	8ccJ	.
8GL	4d	4gn	4b	her-
8F#J	.	.	.	.
=6	=6	=6	=6	=6
4E	8cL	8gL	4cc	-aus-
.	8dJ	8f#J	.	.
8DL	4e	4g	8bL	-ge-
8CJ	.	.	8aJ	.
4D	8dL	4f#	4a	-ris-
.	8cJ	.	.	.
4GG;	4B;	4d;	4g;	-sen
=7	=7	=7	=7	=7
4A	4e	4c	4cc	und
8GL	4B	4g	4dd	mich
8FJ	.	.	.	.
4E	8cL	4g	8eeL	Sol-
.	8BJ	.	8ddJ	.
8FL	4A	8aL	4cc	-ches
8EJ	.	8gJ	.	.
=8	=8	=8	=8	=8
4D	4d	8aL	4ff	las-
.	.	8bJ	.	.
8EL	4G	4cc	4ee	-sen
8FJ	.	.	.	.
4G	8gL	4b	4dd	wis-
.	8fJ	.	.	.
4C;	4e;	4g;	4cc;	-sen
=9	=9	=9	=9	=9
4G	4d	4g	4b	durch
4A	4c	8fL	4cc	dein
.	.	8eJ	.	.
4B	8gL	4d	4dd	an-
.	8fJ	.	.	.
8cL	4e	8gL	4ee	-ge-
8BJ	.	8aJ	.	.
=10	=10	=10	=10	=10
8AL	4f	4b	4dd	-neh-
8G#J	.	.	.	.
4A	4e	4a	4cc	-mes
2E;	2e;	2g#;	2b;	Wort:
=11	=11	=11	=11	=11
8CL	4e	8aL	4a	sei
8BBJ	.	8gJ	.	.
8AAL	4d	8fL	4b	doch
8GG#J	.	8eJ	.	.
8AAL	8cL	8eL	8ccL	itzt,
8DJ	8dJ	8fJ	8bJ	.
8EL	8G#L	8eL	4dd	o
8FJ	8AJ	8dJ	.	.
=12	=12	=12	=12	=12
8EL	4A	4e	4cc	Gott,
8DJ	.	.	.	.
4E	4G#	8.eL	8bL	mein
.	.	.	8aJ	.
.	.	16dJk	.	.
2AA;	2E;	2c#;	2a;	Hort.
==|!	==|!	==|!	==|!	==|!
*-	*-	*-	*-	*-
!!!RWG: Key is interpreted using the Humdrum key tool.
!!!URL-pdf: https://s9.imslp.org/files/imglnks/usimg/6/6b/IMSLP24489-PMLP09471-CCARH_Bach_Chorales.pdf#page=70 Musedata edition
!!!URL-pdf: https://s9.imslp.org/files/imglnks/usimg/7/7a/IMSLP04155-Bach_-_BGA_253-438.pdf#page=53 	Bach-Gesellschaft Ausgabe, Band 39 (pp.175-276) Leipzig: Breitkopf und Härtel, 1892. Plate B.W. XXXIX.
!!!END: 1994/06/27
!!!EMD: Converted from MuseData to Humdrum Dec 19, 2000, by Andreas Kornstaedt using muse2kern.
!!!EED: Craig Stuart Sapp
!!!EEV: 2024/03/31
!!!filter-keyboard: satb2gs
